X: 13394
T: Flight Of The Midges, The
R: jig
M: 6/8
K: Amajor
|:E2F A2B|{B}c2B AFF|EFA Bce|fec BAF|
E2F A2B|{B}c2B AFF|a2e fec|BAF A3:|
|:ABc ~e3|efa ~f3|ABc eAA|ezf ecB|
ABc ~e3|efa ~f3|e2e fec|BAF A3:|

